assets/Woman standing/Dark/Flat/woman_standing_flat_dark.svg

<svg width="32" height="32" viewBox="0 0 32 32" fill="none" xmlns="http://www.w3.org/2000/svg">
<path d="M18.7399 6.28C18.8299 6.09 18.8799 5.89 18.8799 5.66C18.8799 5.37 18.7899 5.1 18.6399 4.88C18.4899 4.65 18.4099 4.39 18.4099 4.12C18.4099 3.34 17.7699 2.7 16.9899 2.7C16.9099 2.7 16.8399 2.66 16.7899 2.6C16.5399 2.23 16.1199 2 15.6399 2C15.1599 2 14.7399 2.23 14.4899 2.59C14.4399 2.65 14.3699 2.69 14.2899 2.69C13.5099 2.69 12.8699 3.33 12.8699 4.11C12.8699 4.38 12.7899 4.65 12.6399 4.87C12.4999 5.1 12.4099 5.37 12.4099 5.66C12.4099 5.88 12.4599 6.09 12.5499 6.28C12.5799 6.34 12.5799 6.41 12.5499 6.48C12.4599 6.66 12.4099 6.86 12.4099 7.08C12.4099 7.85 13.0299 8.47 13.7999 8.47H17.4999C18.2699 8.47 18.8899 7.85 18.8899 7.08C18.8899 6.86 18.8399 6.66 18.7499 6.47C18.7099 6.41 18.7099 6.34 18.7399 6.28Z" fill="black"/>
<path d="M11.9301 19.74C12.0401 19.88 12.2501 19.9 12.3901 19.79C12.5301 19.68 12.5501 19.47 12.4401 19.33L12.0901 18.89C11.9801 18.75 11.7701 18.73 11.6301 18.84C11.4901 18.95 11.4701 19.16 11.5801 19.3L11.9301 19.74Z" fill="#341A1C"/>
<path d="M19.21 19.74C19.1 19.88 18.89 19.9 18.75 19.79C18.61 19.68 18.58 19.47 18.7 19.33L19.05 18.89C19.16 18.75 19.37 18.73 19.51 18.84C19.65 18.95 19.67 19.16 19.56 19.3L19.21 19.74Z" fill="#341A1C"/>
<path d="M13.96 8.98999L14.06 10.32L14.15 11.36C14.12 11.37 12.45 12.75 12.98 18.25C13 18.49 13.05 18.98 13.08 19.2C13.09 19.37 12.7 19.44 12.57 19.27C12.5351 19.2177 12.5064 19.1254 12.476 19.0281C12.4193 18.8462 12.3573 18.647 12.24 18.66C11.94 18.69 12.07 19.18 12.07 19.18C12.07 19.18 12.21 19.89 12.23 20.05C12.26 20.37 11.8 20.46 11.67 20.23C11.51 19.94 11.36 19.64 11.27 19.21C11.22 18.99 11.13 18.3 11.13 18.3C10.4989 10.6274 12.347 9.75859 13.5817 9.17819C13.7164 9.11485 13.8439 9.05494 13.96 8.98999Z" fill="#573739"/>
<path d="M17.18 8.98999L17.08 10.32L17 11.36C17.02 11.37 18.69 12.75 18.15 18.25C18.1354 18.4249 18.1049 18.738 18.0817 18.9762C18.0731 19.0648 18.0654 19.143 18.06 19.2C18.05 19.37 18.44 19.44 18.57 19.27C18.6048 19.2177 18.6336 19.1254 18.6639 19.0281C18.7206 18.8462 18.7827 18.647 18.9 18.66C19.2 18.69 19.07 19.18 19.07 19.18C19.07 19.18 18.93 19.89 18.91 20.05C18.88 20.37 19.34 20.46 19.47 20.23C19.63 19.94 19.78 19.64 19.87 19.21C19.92 18.99 20.01 18.3 20.01 18.3C20.6411 10.6274 18.793 9.75859 17.5583 9.17819C17.4236 9.11485 17.2961 9.05494 17.18 8.98999Z" fill="#573739"/>
<path d="M16.1001 30.03V28.46L17.0277 28.088L18.0501 28.46C18.0501 28.46 17.8001 28.64 18.9601 29.46C19.1801 29.61 19.0701 30.03 19.0701 30.03H16.1001Z" fill="#533566"/>
<path d="M15.0699 30.03V28.46L14.0753 28.1242L13.0599 28.46C13.0599 28.46 13.1299 28.78 12.1399 29.46C11.9199 29.61 12.0299 30.03 12.0299 30.03H15.0699Z" fill="#533566"/>
<path d="M12.5901 16L13.0702 28.46H15.0802L15.3502 18.09C15.3502 17.71 15.8102 17.73 15.8102 18.09L16.1002 28.46H18.0402L18.5701 15.9922L15.6586 15.1548L12.5901 16Z" fill="#9B9B9B"/>
<path d="M18.5701 16H12.5901V12.65H11.2C11.2 11.5 11.83 10.45 12.59 9.68002C13.36 8.90002 14.4201 8.42004 15.5901 8.42004C16.7601 8.42004 17.8201 8.91004 18.5901 9.68004C19.3501 10.45 19.93 11.5 19.93 12.65H18.5807L18.5701 16Z" fill="#8B62BF"/>
<path d="M15.5699 9.41002C15.0699 9.41002 14.6599 9.00002 14.6599 8.50002V7.90002H16.4799V8.50002C16.4799 9.00002 16.0699 9.41002 15.5699 9.41002Z" fill="#452829"/>
<path d="M14.44 5.67996C14.44 6.07761 14.1176 6.39996 13.72 6.39996C13.3224 6.39996 13 6.07761 13 5.67996C13 5.28232 13.3224 4.95996 13.72 4.95996C14.1176 4.95996 14.44 5.28232 14.44 5.67996Z" fill="#4E3233"/>
<path d="M18.2698 5.67996C18.2698 6.07761 17.9475 6.39996 17.5498 6.39996C17.1522 6.39996 16.8298 6.07761 16.8298 5.67996C16.8298 5.28232 17.1522 4.95996 17.5498 4.95996C17.9475 4.95996 18.2698 5.28232 18.2698 5.67996Z" fill="#4E3233"/>
<path d="M17.8079 4.85146C17.7771 4.34674 17.4066 4.31 17.3299 4.31H15.9599C15.4099 4.31 14.9099 4.05 14.5999 3.6C14.5499 3.52 14.4299 3.54 14.3999 3.62L14.3599 3.69C14.2599 3.93 14.0799 4.12 13.8499 4.22C13.8437 4.22618 13.8375 4.22854 13.829 4.2318C13.8237 4.23382 13.8175 4.23618 13.8099 4.24C13.7126 4.28864 13.4923 4.4414 13.4712 4.8272L13.4758 4.93724L13.4799 4.99L13.5263 6.13102L13.53 6.21999C13.58 7.42999 14.51 8.23999 15.64 8.23999C16.77 8.23999 17.7 7.42999 17.75 6.21999L17.8079 4.85146Z" fill="#573739"/>
<path d="M14.52 5.09998C14.77 5.09998 14.96 5.26998 15.09 5.45998C14.9942 5.4887 14.9016 5.51538 14.8103 5.54166C14.6156 5.59771 14.4274 5.65189 14.23 5.71998L14.02 5.52998C13.93 5.44998 13.94 5.31998 14.03 5.24998C14.17 5.14998 14.35 5.09998 14.52 5.09998Z" fill="black"/>
<path d="M16.77 5.09998C16.53 5.09998 16.33 5.26998 16.21 5.45998C16.3057 5.4887 16.3984 5.51538 16.4896 5.54166C16.6843 5.59771 16.8725 5.65189 17.07 5.71998L17.27 5.52998C17.36 5.44998 17.35 5.31998 17.26 5.24998C17.12 5.14998 16.94 5.09998 16.77 5.09998Z" fill="black"/>
<path d="M14.02 5.59001C14.08 5.33001 14.32 5.14001 14.6 5.14001C14.89 5.14001 15.14 5.34001 15.19 5.62001C15.2 5.68001 15.15 5.74001 15.09 5.74001H14.13C14.06 5.74001 14 5.66001 14.02 5.59001Z" fill="white"/>
<path d="M17.2799 5.59001C17.2199 5.33001 16.9799 5.14001 16.6999 5.14001C16.4099 5.14001 16.1599 5.34001 16.1099 5.62001C16.0999 5.68001 16.1499 5.74001 16.2099 5.74001H17.1699C17.2399 5.74001 17.2999 5.66001 17.2799 5.59001Z" fill="white"/>
<path d="M14.3101 5.64001C14.3101 5.43001 14.4801 5.26001 14.6901 5.26001C14.9001 5.26001 15.0701 5.43001 15.0701 5.64001C15.0701 5.67001 15.0701 5.71001 15.0601 5.74001H14.3201C14.3201 5.72609 14.3179 5.71216 14.3156 5.69724C14.3129 5.68001 14.3101 5.66145 14.3101 5.64001Z" fill="#7D4533"/>
<path d="M16.99 5.64001C16.99 5.43001 16.82 5.26001 16.61 5.26001C16.4 5.26001 16.23 5.43001 16.23 5.64001C16.23 5.67001 16.23 5.71001 16.24 5.74001H16.98C16.98 5.72609 16.9821 5.71216 16.9844 5.69724C16.9871 5.68001 16.99 5.66145 16.99 5.64001Z" fill="#7D4533"/>
<path d="M14.69 5.42004C14.81 5.42004 14.91 5.52004 14.91 5.64004C14.91 5.68004 14.9 5.72004 14.89 5.74004H14.5C14.48 5.71004 14.47 5.68004 14.47 5.64004C14.47 5.52004 14.57 5.42004 14.69 5.42004Z" fill="black"/>
<path d="M16.6099 5.42004C16.4899 5.42004 16.3899 5.52004 16.3899 5.64004C16.3899 5.68004 16.3999 5.72004 16.4199 5.74004H16.7999C16.8199 5.71004 16.8299 5.68004 16.8299 5.64004C16.8299 5.52004 16.7299 5.42004 16.6099 5.42004Z" fill="black"/>
<path d="M14.63 5.49004C14.63 5.5287 14.5987 5.56004 14.56 5.56004C14.5213 5.56004 14.49 5.5287 14.49 5.49004C14.49 5.45138 14.5213 5.42004 14.56 5.42004C14.5987 5.42004 14.63 5.45138 14.63 5.49004Z" fill="white"/>
<path d="M16.5499 5.49004C16.5499 5.5287 16.5186 5.56004 16.4799 5.56004C16.4413 5.56004 16.4099 5.5287 16.4099 5.49004C16.4099 5.45138 16.4413 5.42004 16.4799 5.42004C16.5186 5.42004 16.5499 5.45138 16.5499 5.49004Z" fill="white"/>
<path d="M15.64 6.94001C15.42 6.94001 15.21 6.89001 15.03 6.79001C14.97 6.76001 14.91 6.83001 14.95 6.89001C15.1 7.12001 15.36 7.27001 15.65 7.27001C15.94 7.27001 16.2 7.12001 16.35 6.89001C16.39 6.83001 16.32 6.76001 16.26 6.80001C16.08 6.89001 15.87 6.94001 15.64 6.94001Z" fill="#290118"/>
<path d="M15.49 5.54993L15.27 6.24993C15.22 6.39993 15.33 6.53993 15.48 6.53993H15.8C15.95 6.53993 16.06 6.38993 16.01 6.24993L15.8 5.54993C15.75 5.38993 15.53 5.38993 15.49 5.54993Z" fill="#3D2123"/>
<path d="M14.0496 4.90472C14.0695 4.91878 14.0933 4.92625 14.1177 4.9261C14.1434 4.92546 14.1683 4.91671 14.1887 4.90111C14.3759 4.77149 14.6059 4.71919 14.8307 4.75511C14.8613 4.7581 14.8918 4.74947 14.9163 4.73093C14.9407 4.7124 14.9573 4.68532 14.9627 4.65511C14.9648 4.63987 14.9639 4.62437 14.96 4.60949C14.9562 4.5946 14.9494 4.58063 14.9401 4.56837C14.9308 4.55611 14.9192 4.5458 14.9059 4.53803C14.8926 4.53027 14.878 4.52519 14.8627 4.52311C14.5752 4.47867 14.2817 4.54828 14.0447 4.71711C14.0255 4.73218 14.0115 4.75286 14.0047 4.77628C13.9979 4.79969 13.9985 4.82466 14.0065 4.84769C14.0146 4.87072 14.0296 4.89066 14.0496 4.90472Z" fill="black"/>
<path d="M17.0547 4.90112C17.0754 4.91761 17.1012 4.92644 17.1277 4.92612C17.145 4.92603 17.1622 4.92214 17.1779 4.91471C17.1936 4.90728 17.2075 4.8965 17.2187 4.88312C17.2379 4.85866 17.2467 4.82761 17.2431 4.79671C17.2395 4.76581 17.2239 4.73756 17.1997 4.71812C16.9609 4.55256 16.6683 4.48327 16.3807 4.52412C16.3654 4.5262 16.3507 4.53128 16.3375 4.53904C16.3242 4.54681 16.3126 4.55712 16.3033 4.56938C16.294 4.58164 16.2872 4.59561 16.2833 4.6105C16.2794 4.62538 16.2785 4.64088 16.2807 4.65612C16.2826 4.67141 16.2876 4.68616 16.2953 4.6995C16.3031 4.71284 16.3134 4.72451 16.3257 4.73382C16.338 4.74313 16.352 4.7499 16.3669 4.75373C16.3818 4.75756 16.3974 4.75837 16.4127 4.75612C16.6373 4.72022 16.8672 4.77214 17.0547 4.90112Z" fill="black"/>
</svg>

<svg xmlns="http://www.w3.org/2000/svg" width="32" height="32" fill="none"><path fill="#000" d="M18.74 6.28a1.411 1.411 0 0 0-.1-1.4c-.15-.23-.23-.49-.23-.76 0-.78-.64-1.42-1.42-1.42-.08 0-.15-.04-.2-.1-.25-.37-.67-.6-1.15-.6-.48 0-.9.23-1.15.59-.05.06-.12.1-.2.1-.78 0-1.42.64-1.42 1.42 0 .27-.08.54-.23.76-.14.23-.23.5-.23.79 0 .22.05.43.14.62.03.06.03.13 0 .2a1.387 1.387 0 0 0 1.25 1.99h3.7c.77 0 1.39-.62 1.39-1.39 0-.22-.05-.42-.14-.61a.186.186 0 0 1-.01-.19Z"/><path fill="#341A1C" d="M11.93 19.74c.11.14.32.16.46.05a.33.33 0 0 0 .05-.46l-.35-.44a.33.33 0 0 0-.46-.05.33.33 0 0 0-.05.46l.35.44ZM19.21 19.74a.33.33 0 0 1-.46.05.322.322 0 0 1-.05-.46l.35-.44a.33.33 0 0 1 .46-.05c.14.11.16.32.05.46l-.35.44Z"/><path fill="#573739" d="m13.96 8.99.1 1.33.09 1.04c-.03.01-1.7 1.39-1.17 6.89.02.24.07.73.1.95.01.17-.38.24-.51.07-.035-.052-.064-.145-.094-.242-.057-.182-.119-.381-.236-.368-.3.03-.17.52-.17.52s.14.71.16.87c.03.32-.43.41-.56.18-.16-.29-.31-.59-.4-1.02-.05-.22-.14-.91-.14-.91-.631-7.673 1.217-8.541 2.452-9.122.134-.063.262-.123.378-.188ZM17.18 8.99l-.1 1.33-.08 1.04c.02.01 1.69 1.39 1.15 6.89-.015.175-.045.488-.068.726l-.022.224c-.01.17.38.24.51.07.035-.052.064-.145.094-.242.057-.182.119-.381.236-.368.3.03.17.52.17.52s-.14.71-.16.87c-.03.32.43.41.56.18.16-.29.31-.59.4-1.02.05-.22.14-.91.14-.91.631-7.673-1.217-8.541-2.452-9.122-.134-.063-.262-.123-.378-.188Z"/><path fill="#533566" d="M16.1 30.03v-1.57l.928-.372 1.022.372s-.25.18.91 1c.22.15.11.57.11.57H16.1ZM15.07 30.03v-1.57l-.995-.336-1.015.336s.07.32-.92 1c-.22.15-.11.57-.11.57h3.04Z"/><path fill="#9B9B9B" d="m12.59 16 .48 12.46h2.01l.27-10.37c0-.38.46-.36.46 0l.29 10.37h1.94l.53-12.468-2.911-.837L12.59 16Z"/><path fill="#8B62BF" d="M18.57 16h-5.98v-3.35H11.2c0-1.15.63-2.2 1.39-2.97.77-.78 1.83-1.26 3-1.26s2.23.49 3 1.26c.76.77 1.34 1.82 1.34 2.97h-1.35L18.57 16Z"/><path fill="#452829" d="M15.57 9.41c-.5 0-.91-.41-.91-.91v-.6h1.82v.6c0 .5-.41.91-.91.91Z"/><path fill="#4E3233" d="M14.44 5.68a.72.72 0 1 1-1.44 0 .72.72 0 0 1 1.44 0ZM18.27 5.68a.72.72 0 1 1-1.44 0 .72.72 0 0 1 1.44 0Z"/><path fill="#573739" d="M17.808 4.851c-.03-.504-.401-.541-.478-.541h-1.37c-.55 0-1.05-.26-1.36-.71-.05-.08-.17-.06-.2.02l-.04.07c-.1.24-.28.43-.51.53-.006.006-.012.009-.021.012l-.02.008c-.096.049-.317.201-.338.587l.005.11.004.053.046 1.141.004.089c.05 1.21.98 2.02 2.11 2.02s2.06-.81 2.11-2.02l.058-1.369Z"/><path fill="#000" d="M14.52 5.1c.25 0 .44.17.57.36l-.28.082c-.194.056-.383.11-.58.178l-.21-.19a.179.179 0 0 1 .01-.28c.14-.1.32-.15.49-.15ZM16.77 5.1c-.24 0-.44.17-.56.36l.28.082c.194.056.383.11.58.178l.2-.19c.09-.08.08-.21-.01-.28a.858.858 0 0 0-.49-.15Z"/><path fill="#fff" d="M14.02 5.59c.06-.26.3-.45.58-.45.29 0 .54.2.59.48.01.06-.04.12-.1.12h-.96c-.07 0-.13-.08-.11-.15ZM17.28 5.59a.592.592 0 0 0-.58-.45c-.29 0-.54.2-.59.48-.01.06.04.12.1.12h.96c.07 0 .13-.08.11-.15Z"/><path fill="#7D4533" d="M14.31 5.64a.38.38 0 1 1 .76 0c0 .03 0 .07-.01.1h-.74c0-.014-.002-.028-.004-.043a.356.356 0 0 1-.006-.057ZM16.99 5.64a.38.38 0 1 0-.76 0c0 .03 0 .07.01.1h.74c0-.014.002-.028.004-.043a.356.356 0 0 0 .006-.057Z"/><path fill="#000" d="M14.69 5.42c.12 0 .22.1.22.22 0 .04-.01.08-.02.1h-.39a.169.169 0 0 1-.03-.1c0-.12.1-.22.22-.22ZM16.61 5.42c-.12 0-.22.1-.22.22 0 .04.01.08.03.1h.38c.02-.03.03-.06.03-.1 0-.12-.1-.22-.22-.22Z"/><path fill="#fff" d="M14.63 5.49a.07.07 0 1 1-.14 0 .07.07 0 0 1 .14 0ZM16.55 5.49a.07.07 0 1 1-.14 0 .07.07 0 0 1 .14 0Z"/><path fill="#290118" d="M15.64 6.94c-.22 0-.43-.05-.61-.15-.06-.03-.12.04-.08.1a.837.837 0 0 0 1.4 0c.04-.06-.03-.13-.09-.09-.18.09-.39.14-.62.14Z"/><path fill="#3D2123" d="m15.49 5.55-.22.7c-.05.15.06.29.21.29h.32c.15 0 .26-.15.21-.29l-.21-.7c-.05-.16-.27-.16-.31 0Z"/><path fill="#000" d="M14.05 4.905a.117.117 0 0 0 .139-.004.883.883 0 0 1 .642-.146.122.122 0 0 0 .132-.1.117.117 0 0 0-.1-.132 1.116 1.116 0 0 0-.818.194.117.117 0 0 0 .005.188ZM17.055 4.901a.119.119 0 0 0 .164-.018.118.118 0 0 0-.02-.165 1.153 1.153 0 0 0-.818-.194.116.116 0 0 0-.098.087.115.115 0 0 0-.002.045.115.115 0 0 0 .132.1.886.886 0 0 1 .642.145Z"/></svg>
